X:79
T:Smith's Favourite
N:Hornpipe  Allan's  # 79   pg20
N:Trad/Anon
N:CONVERTED FROM NOTEWORTHY COMPOSER  (WWW.NOTEWORTHYSOFTWARE.COM) BY
N:ABC2NWC (HTTP://MEMBERS.AOL.COM/ABACUSMUSIC/), WITH
Z: (INTO NWC) VINCE BRENNAN 2002   (WWW.SOSYOURMOM.COM)
I:abc2nwc
M:4/4
L:1/8
K:A
c3/2B/2| ((3AcA) E3/2G/2A3/2c/2e3/2c/2|d3/2f/2B3/2a/2 g3/2e/2b3/2g/2|a3/2e/2c3/2e/2 f3/2d/2B3/2A/2|G3/2A/2B3/2c/2 d3/2B/2G3/2E/2|
 ((3AcA) E3/2G/2 A3/2c/2e3/2c/2|d3/2f/2B3/2a/2 g3/2e/2b3/2g/2|a3/2e/2c3/2A/2 G3/2B/2e3/2d/2| ((3cBA) B3/2G/2 A2:|
|:(c3/2d/2)| ((3efe) c3/2e/2 A3/2c/2e3/2a/2| ((3faf) d3/2f/2 B3/2d/2f3/2g/2|a3/2e/2c3/2e/2 f3/2d/2B3/2A/2|G3/2A/2B3/2c/2 d3/2B/2G3/2E/2|
 ((3AcA) E3/2G/2 A3/2c/2e3/2c/2|d3/2f/2B3/2a/2 g3/2e/2b3/2g/2|a3/2e/2c3/2A/2 G3/2B/2e3/2d/2| ((3cBA) B3/2G/2 A2:|
